X: 109
T:Fiddlers' Frolic (#305)
M:4/4
L:1/8
S:Patrick Stack, Chicago
R:Reel
K:D
d2 AG FDDF|E=c (3cBc Ec (3cBc|dBcsA BsGAG|FGEF Dgfe|
d2 AG FDDF|E=ccB c2 B^c|(3dcB (3cBA BGAG|FGEG FD D2||
fd (3ddd fdag|fd (3ddd cdeg|fddd f2 ed|cdag fd d2|
(3fgf df (3fgf df|edcd efge|abga fg (3efg|abag fgfe||
